; generated by PrusaSlicer 2.4.2+linux-x64-GTK3 on 2022-09-06 at 01:05:23 UTC

; 

; external perimeters extrusion width = 0.45mm
; perimeters extrusion width = 0.45mm
; infill extrusion width = 0.45mm
; solid infill extrusion width = 0.45mm
; top infill extrusion width = 0.40mm
; first layer extrusion width = 0.42mm

M73 P0 R105
M73 Q0 S106
M201 X1000 Y1000 Z200 E5000 ; sets maximum accelerations, mm/sec^2
M203 X200 Y200 Z12 E120 ; sets maximum feedrates, mm / sec
M204 P1250 R1250 T1250 ; sets acceleration (P, T) and retract acceleration (R), mm/sec^2
M205 X8.00 Y8.00 Z0.40 E4.50 ; sets the jerk limits, mm/sec
M205 S0 T0 ; sets the minimum extruding and travel feed rate, mm/sec
M107
;TYPE:Custom
M862.3 P "MK3S" ; printer model check
M862.1 P0.4 ; nozzle diameter check
M115 U3.10.1 ; tell printer latest fw version
G90 ; use absolute coordinates
M83 ; extruder relative mode
M104 S240 ; set extruder temp
M140 S85 ; set bed temp
M190 S85 ; wait for bed temp
M109 S240 ; wait for extruder temp
G28 W ; home all without mesh bed level
G80 ; mesh bed leveling
G1 Z0.2 F720
G1 Y-3 F1000 ; go outside print area
G92 E0
G1 X60 E9 F1000 ; intro line
G1 X100 E12.5 F1000 ; intro line
G92 E0
M221 S95

; Don't change E values below. Excessive value can damage the printer.
M907 E430 ; set extruder motor current
G21 ; set units to millimeters
G90 ; use absolute coordinates
M83 ; use relative distances for extrusion
M900 K0.08 ; Filament gcode LA 1.5
M900 K45 ; Filament gcode LA 1.0
M107
;LAYER_CHANGE
;Z:0.2
;HEIGHT:0.2
;BEFORE_LAYER_CHANGE
G92 E0.0
;0.2


G1 E-1 F2100
G1 Z.2 F720
;AFTER_LAYER_CHANGE
;0.2
G1 Z.4
G1 X33.56 Y81.817 F10800
G1 Z.2 F720
G1 E1 F2100
M204 S800
;TYPE:Skirt/Brim
;WIDTH:0.42
G1 F1200
G1 X34.5 Y81.623 E.03008
G1 X215.5 Y81.623 E5.67513
G1 X216.807 Y82.015 E.04278
M73 Q0 S105
G1 X217.683 Y83.06 E.04278
G1 X217.877 Y84 E.03008
G1 X217.877 Y126 E1.31688
G1 X217.485 Y127.307 E.04278
G1 X216.44 Y128.183 E.04278
G1 X215.5 Y128.377 E.03008
G1 X34.5 Y128.377 E5.67513
G1 X33.193 Y127.985 E.04278
G1 X32.317 Y126.94 E.04278
G1 X32.123 Y126 E.03008
G1 X32.123 Y84 E1.31688
G1 X32.515 Y82.693 E.04278
G1 X33.514 Y81.855 E.0409
M204 S1000
; printing object RPI_CM4_IO_Plate.stl id:0 copy 0
;WIPE_START
G1 F8640
G1 X34.5 Y81.623 E-.23384
G1 X37.602 Y81.623 E-.71616
;WIPE_END
G1 E-.05 F2100
G1 Z.4 F720
G1 X127.997 Y100.025 F10800
G1 Z.2 F720
G1 E1 F2100
M204 S800
;TYPE:Perimeter
G1 F1200
G1 X128.259 Y99.588 E.01598
G1 X128.626 Y99.183 E.01715
G1 X129.06 Y98.861 E.01692
G1 X129.439 Y98.67 E.01332
G1 X129.956 Y98.514 E.01692
G1 X130.469 Y98.463 E.01617
G1 X142.151 Y98.466 E.3663
G1 X142.664 Y98.542 E.01624
G1 X142.946 Y98.627 E.00925
G1 X143.312 Y98.789 E.01257
G1 X143.769 Y99.093 E.01721
G1 X144.152 Y99.475 E.01694
G1 X144.396 Y99.822 E.01331
G1 X144.62 Y100.294 E.01639
G1 X144.735 Y100.705 E.01338
G1 X144.784 Y101.106 E.01266
G1 X144.787 Y113.774 E.3972
G1 X144.759 Y114.152 E.01188
G1 X144.701 Y114.442 E.00925
G1 X144.522 Y114.944 E.01672
G1 X144.239 Y115.414 E.01721
G1 X143.976 Y115.717 E.01257
G1 X143.758 Y115.915 E.00925
G1 X143.321 Y116.207 E.01647
G1 X142.94 Y116.376 E.01309
G1 X142.544 Y116.485 E.01287
G1 X142.144 Y116.534 E.01264
G1 X130.476 Y116.537 E.36585
G1 X130.098 Y116.509 E.01188
G1 X129.808 Y116.451 E.00925
G1 X129.307 Y116.272 E.01669
G1 X128.844 Y115.995 E.01692
G1 X128.534 Y115.727 E.01287
G1 X128.34 Y115.513 E.00903
G1 X128.104 Y115.178 E.01285
G1 X127.88 Y114.706 E.01639
G1 X127.765 Y114.295 E.01338
G1 X127.715 Y113.894 E.01267
G1 X127.723 Y100.984 E.40479
G1 X127.796 Y100.565 E.01331
G1 X127.97 Y100.079 E.0162
M204 S1000
G1 X128.32 Y100.219 F10800
M204 S800
;TYPE:External perimeter
G1 F1200
G1 X128.563 Y99.814 E.01482
G1 X128.881 Y99.464 E.01482
G1 X129.258 Y99.184 E.01474
G1 X129.58 Y99.022 E.01128
G1 X130.03 Y98.885 E.01474
G1 X130.487 Y98.84 E.01442
G1 X142.123 Y98.843 E.36485
G1 X142.581 Y98.91 E.01449
G1 X142.814 Y98.981 E.00766
G1 X143.13 Y99.121 E.01084
G1 X143.529 Y99.386 E.01502
G1 X143.862 Y99.719 E.01475
G1 X144.069 Y100.013 E.01128
G1 X144.266 Y100.427 E.01437
G1 X144.364 Y100.779 E.01148
G1 X144.407 Y101.129 E.01105
G1 X144.41 Y113.76 E.39604
G1 X144.385 Y114.101 E.01072
G1 X144.337 Y114.341 E.00766
G1 X144.179 Y114.781 E.01466
G1 X143.932 Y115.191 E.01502
G1 X143.706 Y115.453 E.01084
G1 X143.525 Y115.617 E.00766
G1 X143.139 Y115.875 E.01458
G1 X142.812 Y116.02 E.0112
G1 X142.47 Y116.114 E.01112
G1 X142.121 Y116.157 E.01104
G1 X130.49 Y116.16 E.36468
G1 X130.149 Y116.135 E.01072
G1 X129.909 Y116.087 E.00766
G1 X129.469 Y115.93 E.01466
G1 X129.066 Y115.688 E.01474
G1 X128.797 Y115.456 E.01112
G1 X128.635 Y115.277 E.00758
G1 X128.431 Y114.987 E.01112
G1 X128.234 Y114.573 E.01437
G1 X128.136 Y114.221 E.01148
G1 X128.093 Y113.871 E.01105
G1 X128.101 Y101.016 E.40305
G1 X128.162 Y100.662 E.01128
G1 X128.3 Y100.276 E.01286
M204 S1000
G1 X128.095 Y99.888 F10800
;WIPE_START
G1 F8640
G1 X128.563 Y99.814 E-.12275
G1 X128.881 Y99.464 E-.10913
G1 X129.258 Y99.184 E-.10854
G1 X129.58 Y99.022 E-.08309
G1 X130.03 Y98.885 E-.10852
G1 X130.487 Y98.84 E-.10618
G1 X131.837 Y98.84 E-.31177
;WIPE_END
G1 E-.05 F2100
G1 Z.4 F720
G1 X146.209 Y111.963 F10800
G1 Z.2 F720
G1 E1 F2100
M204 S800
;TYPE:Perimeter
G1 F1200
G1 X156.288 Y111.963 E.31604
G1 X156.284 Y113.895 E.06057
G1 X156.235 Y114.294 E.01262
G1 X156.126 Y114.689 E.01287
G1 X155.959 Y115.065 E.01286
G1 X155.74 Y115.411 E.01287
G1 X155.472 Y115.722 E.01286
G1 X155.161 Y115.99 E.01287
G1 X154.815 Y116.209 E.01286
G1 X154.446 Y116.373 E.01264
G1 X154.177 Y116.454 E.00881
G1 X153.902 Y116.509 E.0088
G1 X153.524 Y116.537 E.01188
G1 X148.969 Y116.537 E.14284
G1 X148.463 Y116.487 E.01594
G1 X148.067 Y116.378 E.01286
G1 X147.795 Y116.265 E.00926
G1 X147.338 Y115.991 E.01669
G1 X146.938 Y115.629 E.01692
G1 X146.686 Y115.305 E.01287
G1 X146.534 Y115.052 E.00926
G1 X146.33 Y114.56 E.01669
G1 X146.224 Y114.026 E.01708
G1 X146.209 Y112.023 E.06279
M204 S1000
G1 X146.588 Y112.34 F10800
M204 S800
;TYPE:External perimeter
G1 F1200
G1 X155.91 Y112.34 E.29228
G1 X155.907 Y113.871 E.04801
G1 X155.864 Y114.22 E.01103
G1 X155.77 Y114.562 E.01112
G1 X155.626 Y114.886 E.01112
G1 X155.436 Y115.186 E.01112
G1 X155.205 Y115.455 E.01112
G1 X154.936 Y115.686 E.01112
G1 X154.636 Y115.876 E.01112
G1 X154.314 Y116.019 E.01104
G1 X154.086 Y116.088 E.0075
G1 X153.851 Y116.135 E.0075
G1 X153.51 Y116.16 E.01072
G1 X148.987 Y116.16 E.14182
G1 X148.532 Y116.115 E.01434
G1 X148.19 Y116.02 E.01112
G1 X147.965 Y115.927 E.00766
G1 X147.564 Y115.687 E.01466
G1 X147.215 Y115.371 E.01474
G1 X146.997 Y115.091 E.01112
G1 X146.872 Y114.882 E.00766
G1 X146.693 Y114.45 E.01466
G1 X146.601 Y113.987 E.0148
G1 X146.589 Y112.4 E.04976
M204 S1000
G1 X146.582 Y111.94 F10800
;WIPE_START
G1 F8640
G1 X150.703 Y112.374 E-.95
;WIPE_END
G1 E-.05 F2100
G1 Z.4 F720
G1 X157.713 Y113.463 F10800
G1 Z.2 F720
G1 E1 F2100
M204 S800
;TYPE:Perimeter
G1 F1200
G1 X171.787 Y113.463 E.44129
G1 X171.787 Y116.537 E.09639
G1 X157.713 Y116.537 E.44129
G1 X157.713 Y113.523 E.09451
M204 S1000
G1 X158.09 Y113.84 F10800
M204 S800
;TYPE:External perimeter
G1 F1200
G1 X171.41 Y113.84 E.41764
G1 X171.41 Y116.16 E.07274
G1 X158.09 Y116.16 E.41764
G1 X158.09 Y113.9 E.07086
M204 S1000
G1 X157.91 Y113.483 F10800
;WIPE_START
G1 F8640
G1 X162.204 Y113.881 E-.95
;WIPE_END
G1 E-.05 F2100
G1 Z.4 F720
G1 X202.287 Y103.963 F10800
G1 Z.2 F720
G1 E1 F2100
M204 S800
;TYPE:Perimeter
G1 F1200
G1 X202.287 Y116.537 E.39425
G1 X191.713 Y116.537 E.33155
G1 X191.713 Y103.963 E.39425
M73 P0 R104
G1 X202.227 Y103.963 E.32966
M204 S1000
G1 X201.91 Y104.34 F10800
M204 S800
;TYPE:External perimeter
G1 F1200
G1 X201.91 Y116.16 E.37061
G1 X192.09 Y116.16 E.3079
G1 X192.09 Y104.34 E.37061
G1 X201.85 Y104.34 E.30602
M204 S1000
G1 X202.293 Y104.225 F10800
;WIPE_START
G1 F8640
G1 X201.871 Y108.454 E-.95
;WIPE_END
G1 E-.05 F2100
G1 Z.4 F720
G1 X206.98 Y110.173 F10800
G1 Z.2 F720
G1 E1 F2100
M204 S800
;TYPE:Perimeter
G1 F1200
G1 X207.289 Y109.924 E.01243
G1 X207.606 Y109.72 E.01184
G1 X207.942 Y109.547 E.01184
G1 X208.294 Y109.409 E.01184
G1 X208.657 Y109.307 E.01184
G1 X209.029 Y109.242 E.01184
G1 X209.406 Y109.213 E.01184
G1 X209.783 Y109.223 E.01184
G1 X210.158 Y109.27 E.01184
G1 X210.526 Y109.354 E.01183
G1 X210.88 Y109.472 E.01171
G1 X211.387 Y109.715 E.01764
G1 X211.711 Y109.924 E.01209
G1 X212.006 Y110.16 E.01184
G1 X212.277 Y110.424 E.01184
G1 X212.519 Y110.713 E.01184
G1 X212.732 Y111.025 E.01184
G1 X212.913 Y111.357 E.01184
G1 X213.059 Y111.704 E.01184
G1 X213.171 Y112.065 E.01184
G1 X213.246 Y112.435 E.01184
G1 X213.283 Y112.811 E.01184
G1 X213.283 Y113.189 E.01184
G1 X213.246 Y113.565 E.01184
G1 X213.171 Y113.935 E.01184
G1 X213.059 Y114.296 E.01184
G1 X212.913 Y114.644 E.01184
G1 X212.732 Y114.975 E.01184
G1 X212.519 Y115.287 E.01184
G1 X212.277 Y115.576 E.01184
G1 X212.006 Y115.84 E.01184
G1 X211.711 Y116.076 E.01184
G1 X211.394 Y116.28 E.01184
G1 X211.058 Y116.453 E.01184
G1 X210.706 Y116.591 E.01184
G1 X210.343 Y116.693 E.01184
G1 X209.971 Y116.758 E.01184
G1 X209.594 Y116.787 E.01184
G1 X209.217 Y116.777 E.01184
G1 X208.842 Y116.73 E.01184
G1 X208.474 Y116.646 E.01184
G1 X208.116 Y116.526 E.01184
G1 X207.772 Y116.371 E.01184
G1 X207.445 Y116.182 E.01184
G1 X207.138 Y115.961 E.01184
G1 X206.855 Y115.712 E.01184
G1 X206.598 Y115.435 E.01184
G1 X206.37 Y115.134 E.01184
G1 X206.173 Y114.812 E.01184
G1 X206.01 Y114.471 E.01184
G1 X205.88 Y114.116 E.01184
G1 X205.785 Y113.743 E.01209
G1 X205.717 Y113.184 E.01764
G1 X205.717 Y112.811 E.01171
G1 X205.754 Y112.435 E.01183
G1 X205.829 Y112.065 E.01184
G1 X205.941 Y111.704 E.01184
G1 X206.087 Y111.357 E.01184
G1 X206.268 Y111.025 E.01184
G1 X206.481 Y110.713 E.01184
G1 X206.723 Y110.424 E.01184
G1 X206.937 Y110.215 E.00937
M204 S1000
G1 X207.243 Y110.443 F10800
M204 S800
;TYPE:External perimeter
G1 F1200
G1 X207.509 Y110.231 E.01066
G1 X207.795 Y110.047 E.01066
G1 X208.097 Y109.891 E.01066
G1 X208.414 Y109.767 E.01066
G1 X208.741 Y109.675 E.01066
G1 X209.076 Y109.616 E.01066
G1 X209.415 Y109.591 E.01066
G1 X209.755 Y109.599 E.01066
G1 X210.092 Y109.641 E.01066
G1 X210.424 Y109.717 E.01066
G1 X210.738 Y109.822 E.01039
G1 X211.203 Y110.045 E.01616
G1 X211.491 Y110.231 E.01075
G1 X211.757 Y110.443 E.01066
G1 X212 Y110.68 E.01066
G1 X212.218 Y110.941 E.01066
G1 X212.41 Y111.222 E.01066
G1 X212.573 Y111.52 E.01066
G1 X212.705 Y111.834 E.01066
G1 X212.805 Y112.158 E.01066
G1 X212.872 Y112.492 E.01066
G1 X212.906 Y112.83 E.01066
G1 X212.906 Y113.17 E.01066
G1 X212.872 Y113.508 E.01066
G1 X212.805 Y113.842 E.01066
G1 X212.705 Y114.166 E.01066
G1 X212.573 Y114.48 E.01066
G1 X212.41 Y114.778 E.01066
G1 X212.218 Y115.059 E.01066
G1 X212 Y115.32 E.01066
G1 X211.757 Y115.557 E.01066
G1 X211.491 Y115.769 E.01066
G1 X211.205 Y115.953 E.01066
G1 X210.903 Y116.109 E.01066
G1 X210.586 Y116.233 E.01066
G1 X210.259 Y116.325 E.01066
G1 X209.924 Y116.384 E.01066
G1 X209.585 Y116.409 E.01066
G1 X209.245 Y116.401 E.01066
G1 X208.908 Y116.359 E.01066
G1 X208.576 Y116.283 E.01066
G1 X208.254 Y116.175 E.01066
G1 X207.944 Y116.035 E.01066
G1 X207.65 Y115.865 E.01066
G1 X207.374 Y115.666 E.01066
G1 X207.119 Y115.441 E.01066
G1 X206.888 Y115.192 E.01066
G1 X206.682 Y114.921 E.01066
G1 X206.505 Y114.631 E.01066
G1 X206.357 Y114.325 E.01066
G1 X206.241 Y114.005 E.01066
G1 X206.157 Y113.673 E.01075
G1 X206.094 Y113.161 E.01616
G1 X206.094 Y112.83 E.01039
G1 X206.128 Y112.492 E.01066
G1 X206.195 Y112.158 E.01066
G1 X206.295 Y111.834 E.01066
G1 X206.427 Y111.52 E.01066
G1 X206.59 Y111.222 E.01066
G1 X206.782 Y110.941 E.01066
G1 X207 Y110.68 E.01066
G1 X207.2 Y110.485 E.00878
M204 S1000
G1 X207.176 Y110.11 F10800
;WIPE_START
G1 F8640
G1 X207.509 Y110.231 E-.0923
G1 X207.795 Y110.047 E-.0785
G1 X208.097 Y109.891 E-.0785
G1 X208.414 Y109.767 E-.0785
G1 X208.741 Y109.675 E-.0785
G1 X209.076 Y109.616 E-.07851
G1 X209.415 Y109.591 E-.0785
G1 X209.755 Y109.599 E-.07851
G1 X210.092 Y109.641 E-.07851
G1 X210.424 Y109.717 E-.07848
G1 X210.738 Y109.822 E-.07653
G1 X211.029 Y109.962 E-.07467
;WIPE_END
G1 E-.05 F2100
G1 Z.4 F720
G1 X126.287 Y100.963 F10800
G1 Z.2 F720
G1 E1 F2100
M204 S800
;TYPE:Perimeter
G1 F1200
G1 X126.287 Y116.537 E.48832
G1 X108.213 Y116.537 E.5667
G1 X108.213 Y100.963 E.48832
G1 X126.227 Y100.963 E.56482
M204 S1000
G1 X125.91 Y101.34 F10800
M204 S800
;TYPE:External perimeter
G1 F1200
G1 X125.91 Y116.16 E.46467
G1 X108.59 Y116.16 E.54306
G1 X108.59 Y101.34 E.46467
G1 X125.85 Y101.34 E.54118
M204 S1000
G1 X126.299 Y101.247 F10800
;WIPE_START
G1 F8640
G1 X125.867 Y105.454 E-.95
;WIPE_END
G1 E-.05 F2100
G1 Z.4 F720
G1 X99.288 Y108.213 F10800
G1 Z.2 F720
G1 E1 F2100
M204 S800
;TYPE:Perimeter
G1 F1200
G1 X99.284 Y113.169 E.15539
G1 X99.226 Y113.642 E.01494
G1 X99.096 Y114.108 E.01517
G1 X98.9 Y114.55 E.01517
G1 X98.642 Y114.959 E.01517
G1 X98.33 Y115.32 E.01494
G1 X98.08 Y115.546 E.01057
G1 X97.691 Y115.821 E.01494
G1 X97.259 Y116.038 E.01517
G1 X96.799 Y116.19 E.01517
G1 X96.33 Y116.272 E.01494
G1 X96.017 Y116.287 E.00981
G1 X85.983 Y116.287 E.31461
G1 X85.678 Y116.272 E.00959
G1 X85.351 Y116.224 E.01034
G1 X84.899 Y116.098 E.01472
G1 X84.588 Y115.969 E.01057
G1 X84.179 Y115.738 E.01472
G1 X83.908 Y115.537 E.01057
G1 X83.563 Y115.209 E.01494
G1 X83.27 Y114.833 E.01494
G1 X83.1 Y114.55 E.01034
G1 X82.959 Y114.252 E.01034
G1 X82.812 Y113.806 E.01472
G1 X82.746 Y113.475 E.01057
G1 X82.713 Y113.024 E.01419
G1 X82.713 Y108.213 E.15085
G1 X99.228 Y108.213 E.5178
M204 S1000
G1 X98.91 Y108.59 F10800
M204 S800
;TYPE:External perimeter
M73 Q1 S105
G1 F1200
G1 X98.907 Y113.145 E.14283
G1 X98.855 Y113.568 E.01334
M73 P1 R104
G1 X98.74 Y113.981 E.01343
G1 X98.567 Y114.372 E.01343
G1 X98.338 Y114.734 E.01343
G1 X98.06 Y115.056 E.01335
G1 X97.844 Y115.251 E.00912
G1 X97.496 Y115.497 E.01335
G1 X97.114 Y115.689 E.01343
G1 X96.707 Y115.823 E.01343
G1 X96.288 Y115.896 E.01334
G1 X96.008 Y115.91 E.0088
G1 X85.992 Y115.91 E.31402
G1 X85.715 Y115.896 E.00872
G1 X85.43 Y115.854 E.00904
G1 X85.022 Y115.741 E.01326
G1 X84.753 Y115.63 E.00912
G1 X84.385 Y115.421 E.01327
G1 X84.152 Y115.248 E.00912
G1 X83.843 Y114.955 E.01335
G1 X83.581 Y114.619 E.01335
G1 X83.433 Y114.372 E.00904
G1 X83.31 Y114.111 E.00904
G1 X83.177 Y113.71 E.01327
G1 X83.121 Y113.425 E.00912
G1 X83.09 Y113.01 E.01303
G1 X83.09 Y108.59 E.13859
G1 X98.85 Y108.59 E.49415
M204 S1000
G1 X99.309 Y108.554 F10800
;WIPE_START
G1 F8640
G1 X98.901 Y112.704 E-.95
;WIPE_END
G1 E-.05 F2100
G1 Z.4 F720
G1 X74.288 Y108.213 F10800
G1 Z.2 F720
G1 E1 F2100
M204 S800
;TYPE:Perimeter
G1 F1200
G1 X74.284 Y113.169 E.15539
G1 X74.226 Y113.642 E.01494
G1 X74.096 Y114.108 E.01517
G1 X73.903 Y114.544 E.01494
G1 X73.73 Y114.833 E.01057
G1 X73.437 Y115.209 E.01494
G1 X73.086 Y115.542 E.01517
G1 X72.691 Y115.821 E.01517
G1 X72.259 Y116.038 E.01517
G1 X71.799 Y116.19 E.01517
G1 X71.33 Y116.272 E.01494
G1 X71.017 Y116.287 E.00981
G1 X60.983 Y116.287 E.31461
G1 X60.678 Y116.272 E.00959
G1 X60.351 Y116.224 E.01034
G1 X59.899 Y116.098 E.01472
G1 X59.588 Y115.969 E.01057
G1 X59.179 Y115.738 E.01472
G1 X58.908 Y115.537 E.01057
G1 X58.563 Y115.209 E.01494
G1 X58.27 Y114.833 E.01495
G1 X58.097 Y114.544 E.01057
G1 X57.906 Y114.115 E.01472
G1 X57.811 Y113.799 E.01034
G1 X57.746 Y113.475 E.01034
G1 X57.713 Y113.024 E.01419
G1 X57.713 Y108.213 E.15085
G1 X74.228 Y108.213 E.5178
M204 S1000
G1 X73.91 Y108.59 F10800
M204 S800
;TYPE:External perimeter
G1 F1200
G1 X73.907 Y113.145 E.14283
G1 X73.855 Y113.568 E.01334
G1 X73.74 Y113.981 E.01343
G1 X73.568 Y114.37 E.01335
G1 X73.419 Y114.619 E.00912
G1 X73.157 Y114.955 E.01335
G1 X72.846 Y115.25 E.01343
G1 X72.496 Y115.497 E.01343
G1 X72.114 Y115.689 E.01343
G1 X71.707 Y115.823 E.01343
G1 X71.288 Y115.896 E.01334
G1 X71.008 Y115.91 E.0088
G1 X60.992 Y115.91 E.31402
G1 X60.715 Y115.896 E.00871
G1 X60.43 Y115.854 E.00904
G1 X60.022 Y115.741 E.01326
G1 X59.753 Y115.63 E.00912
G1 X59.385 Y115.421 E.01326
G1 X59.152 Y115.248 E.00912
G1 X58.843 Y114.955 E.01335
G1 X58.581 Y114.619 E.01335
G1 X58.432 Y114.37 E.00912
G1 X58.261 Y113.983 E.01327
G1 X58.177 Y113.707 E.00904
