; generated by PrusaSlicer 2.4.2+linux-x64-GTK3 on 2022-09-06 at 01:06:22 UTC

; 

; external perimeters extrusion width = 0.45mm
; perimeters extrusion width = 0.45mm
; infill extrusion width = 0.45mm
; solid infill extrusion width = 0.45mm
; top infill extrusion width = 0.40mm
; first layer extrusion width = 0.42mm

M73 P0 R166
M73 Q0 S167
M201 X1000 Y1000 Z200 E5000 ; sets maximum accelerations, mm/sec^2
M203 X200 Y200 Z12 E120 ; sets maximum feedrates, mm / sec
M204 P1250 R1250 T1250 ; sets acceleration (P, T) and retract acceleration (R), mm/sec^2
M205 X8.00 Y8.00 Z0.40 E4.50 ; sets the jerk limits, mm/sec
M205 S0 T0 ; sets the minimum extruding and travel feed rate, mm/sec
M107
;TYPE:Custom
M862.3 P "MK3S" ; printer model check
M862.1 P0.4 ; nozzle diameter check
M115 U3.10.1 ; tell printer latest fw version
G90 ; use absolute coordinates
M83 ; extruder relative mode
M104 S240 ; set extruder temp
M140 S85 ; set bed temp
M190 S85 ; wait for bed temp
M109 S240 ; wait for extruder temp
G28 W ; home all without mesh bed level
G80 ; mesh bed leveling
G1 Z0.2 F720
G1 Y-3 F1000 ; go outside print area
G92 E0
G1 X60 E9 F1000 ; intro line
G1 X100 E12.5 F1000 ; intro line
G92 E0
M221 S95

; Don't change E values below. Excessive value can damage the printer.
M907 E430 ; set extruder motor current
G21 ; set units to millimeters
G90 ; use absolute coordinates
M83 ; use relative distances for extrusion
M900 K0.08 ; Filament gcode LA 1.5
M900 K45 ; Filament gcode LA 1.0
M107
;LAYER_CHANGE
;Z:0.2
;HEIGHT:0.2
;BEFORE_LAYER_CHANGE
G92 E0.0
;0.2


G1 E-1 F2100
G1 Z.2 F720
;AFTER_LAYER_CHANGE
;0.2
G1 Z.4
G1 X35.515 Y18.693 F10800
G1 Z.2 F720
G1 E1 F2100
M204 S800
;TYPE:Skirt/Brim
;WIDTH:0.42
G1 F1200
G1 X36.56 Y17.817 E.04278
G1 X37.5 Y17.623 E.03008
G1 X212.5 Y17.623 E5.487
G1 X213.807 Y18.015 E.04278
G1 X214.683 Y19.06 E.04278
G1 X214.877 Y20 E.03008
G1 X214.877 Y190 E5.33023
G1 X214.485 Y191.307 E.04278
M73 P0 R165
G1 X213.44 Y192.183 E.04278
G1 X212.5 Y192.377 E.03008
G1 X37.5 Y192.377 E5.487
G1 X36.193 Y191.985 E.04278
G1 X35.317 Y190.94 E.04278
G1 X35.123 Y190 E.03008
G1 X35.123 Y20 E5.33023
G1 X35.497 Y18.75 E.0409
M204 S1000
; printing object RPI_CM4_ITX_Adapter_Plate.stl id:0 copy 0
;WIPE_START
G1 F8640
G1 X36.56 Y17.817 E-.32671
G1 X37.5 Y17.623 E-.22155
G1 X39.24 Y17.623 E-.40174
;WIPE_END
G1 E-.05 F2100
G1 Z.4 F720
G1 X64.797 Y95.333 F10800
G1 Z.2 F720
G1 E1 F2100
M204 S800
;TYPE:Perimeter
G1 F1200
G1 X65.101 Y95.23 E.01007
G1 X65.46 Y95.185 E.01133
G1 X65.82 Y95.213 E.01133
G1 X66.168 Y95.31 E.01133
G1 X66.49 Y95.475 E.01133
G1 X66.772 Y95.701 E.01133
G1 X67.004 Y95.978 E.01133
G1 X67.177 Y96.295 E.01134
G1 X67.284 Y96.64 E.01133
G1 X67.32 Y97 E.01134
G1 X67.284 Y97.36 E.01133
G1 X67.177 Y97.705 E.01133
G1 X67.005 Y98.021 E.01129
G1 X66.772 Y98.299 E.01137
G1 X66.49 Y98.525 E.01134
G1 X66.168 Y98.69 E.01133
G1 X65.827 Y98.786 E.0111
G1 X65.543 Y98.814 E.00896
G1 X65.19 Y98.787 E.0111
G1 X64.843 Y98.69 E.0113
G1 X64.52 Y98.525 E.01136
G1 X64.238 Y98.299 E.01133
G1 X64.005 Y98.022 E.01134
G1 X63.832 Y97.705 E.01133
G1 X63.726 Y97.359 E.01134
G1 X63.69 Y97 E.01133
G1 X63.726 Y96.64 E.01133
G1 X63.832 Y96.295 E.01134
G1 X64.005 Y95.978 E.01133
G1 X64.237 Y95.701 E.01133
G1 X64.514 Y95.48 E.0111
G1 X64.742 Y95.356 E.00812
M204 S1000
G1 X64.917 Y95.69 F10800
M204 S800
;TYPE:External perimeter
G1 F1200
G1 X65.185 Y95.6 E.00888
G1 X65.469 Y95.564 E.00897
G1 X65.754 Y95.586 E.00897
G1 X66.029 Y95.663 E.00896
G1 X66.284 Y95.794 E.00897
G1 X66.508 Y95.972 E.00897
G1 X66.691 Y96.191 E.00897
G1 X66.828 Y96.442 E.00897
G1 X66.912 Y96.715 E.00896
G1 X66.941 Y97 E.00897
G1 X66.912 Y97.285 E.00897
G1 X66.828 Y97.558 E.00897
G1 X66.692 Y97.808 E.00893
G1 X66.508 Y98.028 E.009
G1 X66.284 Y98.206 E.00897
G1 X66.03 Y98.337 E.00896
G1 X65.757 Y98.414 E.00889
G1 X65.538 Y98.435 E.00689
G1 X65.255 Y98.414 E.00888
G1 X64.981 Y98.337 E.00894
G1 X64.726 Y98.206 E.009
G1 X64.502 Y98.028 E.00897
G1 X64.318 Y97.809 E.00897
G1 X64.181 Y97.558 E.00897
G1 X64.097 Y97.284 E.00898
G1 X64.069 Y97 E.00896
G1 X64.097 Y96.715 E.00896
G1 X64.182 Y96.442 E.00897
G1 X64.318 Y96.191 E.00896
G1 X64.502 Y95.972 E.00897
G1 X64.724 Y95.795 E.00888
G1 X64.864 Y95.719 E.00501
M204 S1000
G1 X64.947 Y95.408 F10800
;WIPE_START
G1 F8640
G1 X65.185 Y95.6 E-.07911
G1 X65.469 Y95.564 E-.06604
G1 X65.754 Y95.586 E-.06604
G1 X66.029 Y95.663 E-.06602
G1 X66.284 Y95.794 E-.06604
G1 X66.508 Y95.972 E-.06603
G1 X66.691 Y96.191 E-.06603
G1 X66.828 Y96.442 E-.06605
G1 X66.912 Y96.715 E-.06602
G1 X66.941 Y97 E-.06605
G1 X66.912 Y97.285 E-.06604
G1 X66.828 Y97.558 E-.06605
G1 X66.692 Y97.808 E-.06574
G1 X66.508 Y98.028 E-.06627
G1 X66.465 Y98.062 E-.01247
;WIPE_END
G1 E-.05 F2100
G1 Z.4 F720
G1 X195.351 Y100.233 F10800
G1 Z.2 F720
M73 Q0 S166
G1 E1 F2100
M204 S800
;TYPE:Perimeter
G1 F1200
G1 X195.351 Y181.807 E2.5577
G1 X48.777 Y181.807 E4.59573
G1 X48.777 Y100.233 E2.5577
G1 X195.291 Y100.233 E4.59385
M204 S1000
G1 X194.974 Y100.61 F10800
M204 S800
;TYPE:External perimeter
G1 F1200
G1 X194.974 Y181.43 E2.53405
G1 X49.154 Y181.43 E4.57208
G1 X49.154 Y100.61 E2.53405
G1 X194.914 Y100.61 E4.5702
M204 S1000
M73 P0 R164
G1 X195.368 Y100.543 F10800
;WIPE_START
G1 F8640
G1 X194.917 Y104.725 E-.95
;WIPE_END
G1 E-.05 F2100
G1 Z.4 F720
G1 X46.918 Y31.643 F10800
G1 Z.2 F720
G1 E1 F2100
M204 S800
;TYPE:Perimeter
G1 F1200
G1 X46.737 Y31.975 E.01184
G1 X46.524 Y32.287 E.01184
G1 X46.282 Y32.576 E.01184
G1 X46.011 Y32.84 E.01184
G1 X45.716 Y33.076 E.01184
G1 X45.399 Y33.28 E.01184
G1 X45.063 Y33.453 E.01184
G1 X44.711 Y33.591 E.01184
G1 X44.348 Y33.693 E.01184
G1 X43.976 Y33.758 E.01184
G1 X43.599 Y33.787 E.01184
G1 X43.222 Y33.777 E.01184
G1 X42.847 Y33.73 E.01184
G1 X42.479 Y33.646 E.01184
G1 X42.121 Y33.526 E.01184
G1 X41.777 Y33.371 E.01184
G1 X41.45 Y33.182 E.01184
G1 X41.143 Y32.961 E.01184
G1 X40.86 Y32.712 E.01184
G1 X40.603 Y32.435 E.01184
G1 X40.375 Y32.134 E.01184
G1 X40.178 Y31.812 E.01183
G1 X40.015 Y31.474 E.01176
G1 X39.836 Y30.942 E.01759
G1 X39.759 Y30.565 E.01209
G1 X39.722 Y30.189 E.01184
G1 X39.722 Y29.811 E.01184
G1 X39.759 Y29.435 E.01184
G1 X39.834 Y29.065 E.01184
G1 X39.945 Y28.704 E.01184
G1 X40.092 Y28.357 E.01184
G1 X40.273 Y28.025 E.01184
G1 X40.485 Y27.713 E.01184
G1 X40.728 Y27.424 E.01184
G1 X40.998 Y27.16 E.01184
G1 X41.294 Y26.924 E.01184
G1 X41.611 Y26.72 E.01184
G1 X41.947 Y26.547 E.01184
G1 X42.298 Y26.409 E.01184
G1 X42.662 Y26.307 E.01184
G1 X43.034 Y26.242 E.01184
G1 X43.41 Y26.213 E.01184
G1 X43.788 Y26.223 E.01184
G1 X44.163 Y26.27 E.01184
G1 X44.531 Y26.354 E.01184
G1 X44.889 Y26.474 E.01184
G1 X45.233 Y26.629 E.01184
G1 X45.56 Y26.818 E.01184
G1 X45.867 Y27.039 E.01184
G1 X46.15 Y27.288 E.01184
G1 X46.407 Y27.565 E.01184
G1 X46.635 Y27.866 E.01184
G1 X46.831 Y28.188 E.01184
G1 X46.995 Y28.529 E.01184
G1 X47.124 Y28.883 E.01184
G1 X47.218 Y29.249 E.01184
G1 X47.274 Y29.623 E.01183
G1 X47.293 Y29.997 E.01176
G1 X47.252 Y30.557 E.01759
G1 X47.176 Y30.935 E.01209
G1 X47.064 Y31.296 E.01184
G1 X46.941 Y31.588 E.00996
M204 S1000
G1 X46.577 Y31.48 F10800
M204 S800
;TYPE:External perimeter
G1 F1200
G1 X46.415 Y31.778 E.01066
G1 X46.223 Y32.059 E.01066
G1 X46.005 Y32.32 E.01066
G1 X45.761 Y32.557 E.01066
G1 X45.496 Y32.769 E.01066
G1 X45.21 Y32.953 E.01066
G1 X44.907 Y33.109 E.01066
G1 X44.591 Y33.233 E.01066
G1 X44.264 Y33.325 E.01066
G1 X43.929 Y33.384 E.01066
G1 X43.59 Y33.409 E.01066
G1 X43.25 Y33.401 E.01066
G1 X42.913 Y33.359 E.01066
G1 X42.581 Y33.283 E.01066
G1 X42.259 Y33.175 E.01066
G1 X41.949 Y33.035 E.01066
G1 X41.655 Y32.865 E.01066
G1 X41.379 Y32.666 E.01066
G1 X41.124 Y32.441 E.01066
G1 X40.892 Y32.192 E.01066
G1 X40.687 Y31.921 E.01066
G1 X40.51 Y31.631 E.01066
G1 X40.365 Y31.331 E.01045
G1 X40.201 Y30.844 E.01611
G1 X40.133 Y30.508 E.01075
G1 X40.099 Y30.17 E.01066
G1 X40.099 Y29.83 E.01066
G1 X40.133 Y29.492 E.01066
G1 X40.2 Y29.158 E.01066
G1 X40.3 Y28.834 E.01066
G1 X40.432 Y28.52 E.01066
G1 X40.595 Y28.222 E.01066
G1 X40.786 Y27.941 E.01066
G1 X41.005 Y27.68 E.01066
G1 X41.248 Y27.443 E.01066
G1 X41.514 Y27.231 E.01066
G1 X41.8 Y27.047 E.01066
G1 X42.102 Y26.891 E.01066
G1 X42.419 Y26.767 E.01066
G1 X42.746 Y26.675 E.01066
G1 X43.081 Y26.616 E.01066
G1 X43.42 Y26.591 E.01066
G1 X43.76 Y26.599 E.01066
G1 X44.097 Y26.641 E.01066
G1 X44.428 Y26.717 E.01066
G1 X44.751 Y26.825 E.01066
G1 X45.061 Y26.965 E.01066
G1 X45.355 Y27.135 E.01066
G1 X45.631 Y27.334 E.01066
G1 X45.886 Y27.559 E.01066
G1 X46.117 Y27.808 E.01066
G1 X46.323 Y28.079 E.01066
G1 X46.5 Y28.369 E.01066
G1 X46.647 Y28.675 E.01066
G1 X46.764 Y28.995 E.01066
G1 X46.848 Y29.324 E.01066
G1 X46.898 Y29.66 E.01066
G1 X46.915 Y29.993 E.01045
G1 X46.878 Y30.505 E.01611
G1 X46.81 Y30.842 E.01075
G1 X46.709 Y31.166 E.01066
G1 X46.601 Y31.424 E.00878
M204 S1000
G1 X46.769 Y31.761 F10800
;WIPE_START
G1 F8640
G1 X46.415 Y31.778 E-.0923
G1 X46.223 Y32.059 E-.0785
G1 X46.005 Y32.32 E-.0785
G1 X45.761 Y32.557 E-.07851
G1 X45.496 Y32.769 E-.07851
G1 X45.21 Y32.953 E-.07849
G1 X44.907 Y33.109 E-.07851
G1 X44.591 Y33.233 E-.0785
G1 X44.264 Y33.325 E-.0785
G1 X43.929 Y33.384 E-.0785
G1 X43.59 Y33.409 E-.0785
G1 X43.275 Y33.401 E-.07268
;WIPE_END
G1 E-.05 F2100
G1 Z.4 F720
G1 X48.82 Y31.294 F10800
G1 Z.2 F720
G1 E1 F2100
M204 S800
;TYPE:Perimeter
G1 F1200
G1 X195.169 Y31.294 E4.58867
G1 X195.169 Y93.901 E1.963
M73 P1 R164
M73 Q1 S166
G1 X48.82 Y93.901 E4.58867
M73 Q1 S165
G1 X48.82 Y31.354 E1.96112
M204 S1000
G1 X49.197 Y31.671 F10800
M204 S800
;TYPE:External perimeter
G1 F1200
G1 X194.792 Y31.671 E4.56502
G1 X194.792 Y93.524 E1.93936
G1 X49.197 Y93.524 E4.56502
G1 X49.197 Y31.731 E1.93748
M204 S1000
G1 X49.045 Y31.301 F10800
;WIPE_START
G1 F8640
G1 X53.311 Y31.729 E-.95
;WIPE_END
G1 E-.05 F2100
G1 Z.4 F720
G1 X63.737 Y28.395 F10800
G1 Z.2 F720
G1 E1 F2100
M204 S800
;TYPE:Perimeter
G1 F1200
G1 X63.69 Y28 E.01249
G1 X63.726 Y27.64 E.01133
G1 X63.832 Y27.295 E.01133
G1 X64.005 Y26.978 E.01133
G1 X64.233 Y26.706 E.0111
G1 X64.453 Y26.522 E.00899
G1 X64.758 Y26.346 E.01107
G1 X65.101 Y26.23 E.01133
G1 X65.46 Y26.185 E.01133
G1 X65.82 Y26.213 E.01133
G1 X66.168 Y26.31 E.01133
G1 X66.49 Y26.475 E.01133
G1 X66.772 Y26.701 E.01133
G1 X67.005 Y26.978 E.01133
G1 X67.177 Y27.295 E.01134
G1 X67.284 Y27.64 E.01133
G1 X67.32 Y28 E.01133
G1 X67.284 Y28.36 E.01133
G1 X67.177 Y28.705 E.01134
G1 X67.005 Y29.021 E.01129
G1 X66.772 Y29.299 E.01136
G1 X66.495 Y29.52 E.01111
G1 X66.243 Y29.657 E.00899
G1 X65.909 Y29.77 E.01107
G1 X65.55 Y29.815 E.01133
G1 X65.189 Y29.787 E.01134
G1 X64.841 Y29.689 E.01136
G1 X64.52 Y29.525 E.0113
G1 X64.238 Y29.299 E.01133
G1 X64.005 Y29.022 E.01134
G1 X63.832 Y28.705 E.01133
G1 X63.754 Y28.453 E.00828
M204 S1000
G1 X64.097 Y28.284 F10800
M204 S800
;TYPE:External perimeter
G1 F1200
G1 X64.069 Y28 E.00896
G1 X64.097 Y27.715 E.00896
G1 X64.181 Y27.442 E.00897
G1 X64.318 Y27.191 E.00897
G1 X64.5 Y26.974 E.00888
G1 X64.67 Y26.832 E.00692
G1 X64.914 Y26.691 E.00885
G1 X65.185 Y26.6 E.00896
G1 X65.469 Y26.564 E.00897
G1 X65.754 Y26.586 E.00897
G1 X66.029 Y26.663 E.00897
G1 X66.284 Y26.794 E.00897
G1 X66.508 Y26.972 E.00897
G1 X66.691 Y27.191 E.00897
G1 X66.828 Y27.442 E.00897
G1 X66.912 Y27.715 E.00896
G1 X66.941 Y28 E.00897
G1 X66.912 Y28.285 E.00897
G1 X66.828 Y28.558 E.00897
G1 X66.692 Y28.808 E.00893
G1 X66.508 Y29.028 E.009
G1 X66.286 Y29.205 E.00889
G1 X66.092 Y29.31 E.00692
G1 X65.824 Y29.4 E.00885
G1 X65.541 Y29.436 E.00897
G1 X65.255 Y29.414 E.00897
G1 X64.979 Y29.336 E.009
G1 X64.726 Y29.206 E.00894
G1 X64.502 Y29.028 E.00896
G1 X64.318 Y28.809 E.00897
G1 X64.181 Y28.558 E.00897
G1 X64.115 Y28.342 E.00709
M204 S1000
G1 X63.826 Y28.193 F10800
;WIPE_START
G1 F8640
G1 X64.069 Y28 E-.07962
G1 X64.097 Y27.715 E-.06602
G1 X64.181 Y27.442 E-.06603
G1 X64.318 Y27.191 E-.06604
G1 X64.5 Y26.974 E-.06543
G1 X64.67 Y26.832 E-.05098
G1 X64.914 Y26.691 E-.0652
G1 X65.185 Y26.6 E-.06602
G1 X65.469 Y26.564 E-.06604
G1 X65.754 Y26.586 E-.06603
G1 X66.029 Y26.663 E-.06603
G1 X66.284 Y26.794 E-.06604
G1 X66.508 Y26.972 E-.06604
G1 X66.691 Y27.191 E-.06603
G1 X66.75 Y27.299 E-.02845
;WIPE_END
G1 E-.05 F2100
G1 Z.4 F720
G1 X197.698 Y28.128 F10800
G1 Z.2 F720
G1 E1 F2100
M204 S800
;TYPE:Perimeter
G1 F1200
G1 X197.71 Y27.729 E.0125
G1 X197.8 Y27.378 E.01135
G1 X197.956 Y27.053 E.01131
G1 X198.174 Y26.766 E.01132
G1 X198.444 Y26.527 E.0113
G1 X198.758 Y26.346 E.01136
G1 X199.101 Y26.23 E.01134
G1 X199.46 Y26.185 E.01133
G1 X199.82 Y26.212 E.01133
G1 X200.168 Y26.31 E.01133
G1 X200.49 Y26.475 E.01133
G1 X200.772 Y26.701 E.01133
G1 X201.005 Y26.978 E.01133
G1 X201.174 Y27.289 E.01111
G1 X201.265 Y27.559 E.00896
G1 X201.318 Y27.909 E.0111
G1 X201.3 Y28.269 E.0113
G1 X201.21 Y28.621 E.01136
G1 X201.054 Y28.947 E.01134
G1 X200.835 Y29.234 E.01133
G1 X200.565 Y29.473 E.01131
G1 X200.25 Y29.655 E.01139
G1 X199.909 Y29.77 E.0113
G1 X199.55 Y29.815 E.01133
G1 X199.189 Y29.787 E.01134
G1 X198.841 Y29.689 E.01136
G1 X198.52 Y29.525 E.0113
G1 X198.237 Y29.299 E.01133
G1 X198.005 Y29.023 E.01133
G1 X197.836 Y28.712 E.01107
G1 X197.744 Y28.439 E.00904
G1 X197.707 Y28.187 E.00799
M204 S1000
G1 X198.07 Y28.072 F10800
M204 S800
;TYPE:External perimeter
G1 F1200
G1 X198.085 Y27.786 E.00898
G1 X198.156 Y27.508 E.00899
M73 P1 R163
G1 X198.28 Y27.251 E.00895
G1 X198.452 Y27.023 E.00896
G1 X198.666 Y26.835 E.00894
G1 X198.914 Y26.691 E.009
G1 X199.185 Y26.6 E.00897
G1 X199.469 Y26.564 E.00897
G1 X199.754 Y26.586 E.00897
G1 X200.029 Y26.663 E.00896
G1 X200.284 Y26.794 E.00897
G1 X200.508 Y26.972 E.00897
G1 X200.691 Y27.191 E.00897
G1 X200.827 Y27.44 E.00889
G1 X200.897 Y27.648 E.00689
G1 X200.939 Y27.928 E.00888
G1 X200.925 Y28.213 E.00894
G1 X200.854 Y28.491 E.009
G1 X200.73 Y28.749 E.00897
G1 X200.558 Y28.977 E.00896
G1 X200.344 Y29.165 E.00894
G1 X200.095 Y29.309 E.00902
G1 X199.824 Y29.4 E.00894
G1 X199.541 Y29.436 E.00897
G1 X199.255 Y29.414 E.00897
G1 X198.979 Y29.336 E.009
G1 X198.726 Y29.206 E.00894
G1 X198.502 Y29.028 E.00896
G1 X198.318 Y28.809 E.00897
G1 X198.183 Y28.561 E.00886
G1 X198.112 Y28.35 E.00697
G1 X198.079 Y28.131 E.00696
M204 S1000
G1 X197.817 Y27.939 F10800
;WIPE_START
G1 F8640
G1 X198.085 Y27.786 E-.07973
G1 X198.156 Y27.508 E-.06617
G1 X198.28 Y27.251 E-.06588
G1 X198.452 Y27.023 E-.06595
G1 X198.666 Y26.835 E-.06581
G1 X198.914 Y26.691 E-.06625
G1 X199.185 Y26.6 E-.06604
G1 X199.469 Y26.564 E-.06604
G1 X199.754 Y26.586 E-.06603
G1 X200.029 Y26.663 E-.06601
G1 X200.284 Y26.794 E-.06605
G1 X200.508 Y26.972 E-.06604
G1 X200.691 Y27.191 E-.06603
G1 X200.827 Y27.44 E-.06545
G1 X200.844 Y27.491 E-.0125
;WIPE_END
G1 E-.05 F2100
G1 Z.4 F720
G1 X200.514 Y49.102 F10800
G1 Z.2 F720
G1 E1 F2100
M204 S800
;TYPE:Perimeter
G1 F1200
G1 X200.89 Y49.073 E.01184
G1 X201.268 Y49.083 E.01184
G1 X201.643 Y49.13 E.01184
G1 X202.011 Y49.214 E.01184
G1 X202.369 Y49.334 E.01184
G1 X202.713 Y49.489 E.01184
G1 X203.047 Y49.682 E.01209
G1 X203.493 Y50.022 E.01759
G1 X203.762 Y50.284 E.01176
G1 X204.004 Y50.573 E.01183
G1 X204.217 Y50.885 E.01184
G1 X204.398 Y51.217 E.01184
G1 X204.544 Y51.564 E.01184
G1 X204.656 Y51.925 E.01184
G1 X204.73 Y52.295 E.01184
G1 X204.768 Y52.671 E.01184
G1 X204.768 Y53.049 E.01184
G1 X204.73 Y53.425 E.01184
G1 X204.656 Y53.795 E.01184
G1 X204.544 Y54.156 E.01184
G1 X204.398 Y54.503 E.01184
G1 X204.217 Y54.835 E.01184
G1 X204.004 Y55.147 E.01184
G1 X203.762 Y55.436 E.01184
G1 X203.491 Y55.7 E.01184
G1 X203.196 Y55.936 E.01184
G1 X202.879 Y56.14 E.01184
G1 X202.543 Y56.313 E.01184
G1 X202.191 Y56.451 E.01184
G1 X201.828 Y56.553 E.01184
G1 X201.456 Y56.618 E.01184
G1 X201.079 Y56.647 E.01184
G1 X200.702 Y56.637 E.01184
G1 X200.327 Y56.59 E.01184
G1 X199.959 Y56.506 E.01184
G1 X199.601 Y56.386 E.01184
G1 X199.257 Y56.231 E.01184
G1 X198.93 Y56.042 E.01184
G1 X198.623 Y55.821 E.01184
G1 X198.34 Y55.572 E.01184
G1 X198.083 Y55.295 E.01184
G1 X197.855 Y54.994 E.01184
G1 X197.658 Y54.672 E.01184
G1 X197.494 Y54.331 E.01184
G1 X197.365 Y53.976 E.01184
G1 X197.272 Y53.611 E.01184
G1 X197.216 Y53.237 E.01183
G1 X197.197 Y52.863 E.01176
G1 X197.238 Y52.303 E.01759
G1 X197.314 Y51.925 E.01209
